file/budget.svg

<svg clip-rule="evenodd" fill-rule="evenodd" stroke-linejoin="round" stroke-miterlimit="2" viewBox="0 0 560 400" xmlns="http://www.w3.org/2000/svg"><g fill-rule="nonzero"><path d="m108.896 2.098h87.747v130.087z" fill="#f57d14" transform="matrix(.47104587585 0 0 -.47065953285 90 225.07847445)"/><path d="m0 132.185v-132.184l196.643 132.184z" fill="#ed451e" transform="matrix(.47104587585 0 0 -.47065953285 90 224.09188635)"/><path d="m270.685 125.69c3.985 0 10.431.237 14.219 2.056 5.73 3.141 7.556 8.063 7.556 15.534 0 8.036-4.843 12.792-8.911 14.699-3.108 1.57-7.123 2.235-13.388 2.235h-18.34v-34.524zm3.585-58.058c5.702 0 10.141.674 13.614 2.069 7.116 3.195 11.365 9.013 11.516 17.511 0 8.112-4.556 14.327-11.527 17.312-5.029 2.093-9.148 2.245-15.352 2.245h-20.7v-39.137zm-44.525-19.816v132.183h45.87c17.85 0 39.415-9.404 39.415-34.254 0-14.844-6.951-24.371-13.204-27.921 16.819-6.459 20.109-22.44 20.109-31.859 0-21.125-17.42-38.149-45.125-38.149zm192.725 48.904v50.722h-21.715v-50.722c0-18.035-9.229-29.676-23.681-29.676-14.413 0-23.642 11.641-23.642 29.676v50.722h-21.752v-50.722c0-30.269 20.176-49.623 45.394-49.623 25.261 0 45.396 19.354 45.396 49.623zm60.354 32.837c-15.625 0-27.845-13.8-27.845-31.456 0-17.132 12.45-31.034 27.845-31.034 15.262 0 28.165 14.197 28.165 31.034 0 17.344-12.646 31.456-28.165 31.456zm0-82.46c-27.784 0-49.609 22.187-49.609 51.19 0 29.108 21.825 51.393 49.609 51.393 10.13 0 20.347-3.674 28.165-10.741v41.061h21.695v-130.869h-21.156v9.164c-7.768-7.364-18.173-11.198-28.704-11.198zm111.482 20c-15.622 0-27.843 13.92-27.843 31.563 0 17.144 12.456 31.047 27.843 31.047 15.261 0 28.164-14.196 28.164-31.047 0-17.329-12.647-31.563-28.164-31.563zm28.702 80.345v-8.963c-7.766 7.362-18.172 11.202-28.702 11.202-27.783 0-49.567-22.185-49.567-51.205 0-29.099 21.784-51.384 49.567-51.384 10.128 0 20.348 3.679 28.164 10.743 0 0 4.39-37.525-28.699-37.525-13.951 0-23.797 10.021-28.22 17.572.006 0-17.348-12.19-17.348-12.19 8.526-15.926 26.577-25.692 45.568-25.692 12.776 0 25.343 3.625 34.276 11.457 10.49 9.257 16.244 22.133 16.244 39.492v96.493zm55.682-39.885c.786 5.883 7.919 22.294 25.65 22.294 17.199 0 24.735-15.904 25.409-22.294zm59.833 28.207c-9.056 9.496-21.357 13.912-34.209 13.912-27.467 0-48.623-22.817-48.623-51.48 0-28.94 20.694-51.099 49.142-51.099 14.972 0 30.112 7.765 39.396 19.634l-16.942 11.875c-5.571-7.66-15.037-11.679-22.454-11.679-11.607 0-23.419 8.289-26.318 22.542h72.781s6.646 25.915-12.773 46.295zm62.442-68.814c-11.033 0-16.163 5.38-16.163 16.97v44.33h21.204v19.192h-21.204v27.462h-21.697v-90.984c0-23.029 13.195-36.823 34.446-36.823 4.43 0 8.816.639 8.816.639v19.483c-2.724-.233-4.267-.269-5.402-.269zm33.829 95.101c1.594 0 3.435.431 3.435 2.339 0 1.717-1.648 2.15-3.133 2.15h-2.585v-4.489zm-5.104 6.885h5.534c2.946 0 5.842-1.231 5.842-4.61 0-2.275-1.415-3.752-3.627-4.242l4.232-6.882h-3.442l-3.68 6.577h-2.038v-6.577h-2.821zm5.47-19.736c6.511 0 11.796 5.354 11.796 11.807 0 6.514-5.285 11.8-11.796 11.8-6.509 0-11.806-5.286-11.806-11.8 0-6.453 5.297-11.807 11.806-11.807zm0 25.759c7.74 0 14.014-6.209 14.014-13.952s-6.274-13.83-14.014-13.83c-7.743 0-14.016 6.087-14.016 13.83s6.273 13.952 14.016 13.952" fill="#202d59" transform="matrix(.47104587585 0 0 -.47065953285 90 246.59589495)"/></g></svg>

<?xml version="1.0" encoding="UTF-8" standalone="no"?>
<!DOCTYPE svg PUBLIC "-//W3C//DTD SVG 1.1//EN" "http://www.w3.org/Graphics/SVG/1.1/DTD/svg11.dtd">
<svg width="100%" height="100%" viewBox="0 0 560 400" version="1.1" xmlns="http://www.w3.org/2000/svg" xmlns:xlink="http://www.w3.org/1999/xlink" xml:space="preserve" xmlns:serif="http://www.serif.com/" style="fill-rule:evenodd;clip-rule:evenodd;stroke-linejoin:round;stroke-miterlimit:2;">
    <g transform="matrix(0.47115,0,0,0.47115,90,161.877)">
        <g>
            <g transform="matrix(0.999779,0,0,-0.998959,0,134.143)">
                <path d="M108.896,2.098L196.643,2.098L196.643,132.185L108.896,2.098" style="fill:rgb(245,125,20);fill-rule:nonzero;"/>
            </g>
            <g transform="matrix(0.999779,0,0,-0.998959,0,132.049)">
                <path d="M0,132.185L0,0.001L196.643,132.185L0,132.185" style="fill:rgb(237,69,30);fill-rule:nonzero;"/>
            </g>
            <g transform="matrix(0.999779,0,0,-0.998959,0,179.813)">
                <path d="M270.685,125.69C274.67,125.69 281.116,125.927 284.904,127.746C290.634,130.887 292.46,135.809 292.46,143.28C292.46,151.316 287.617,156.072 283.549,157.979C280.441,159.549 276.426,160.214 270.161,160.214L251.821,160.214L251.821,125.69L270.685,125.69ZM274.27,67.632C279.972,67.632 284.411,68.306 287.884,69.701C295,72.896 299.249,78.714 299.4,87.212C299.4,95.324 294.844,101.539 287.873,104.524C282.844,106.617 278.725,106.769 272.521,106.769L251.821,106.769L251.821,67.632L274.27,67.632L274.27,67.632ZM229.745,47.816L229.745,179.999L275.615,179.999C293.465,179.999 315.03,170.595 315.03,145.745C315.03,130.901 308.079,121.374 301.826,117.824C318.645,111.365 321.935,95.384 321.935,85.965C321.935,64.84 304.515,47.816 276.81,47.816L229.745,47.816ZM422.47,96.72L422.47,147.442L400.755,147.442L400.755,96.72C400.755,78.685 391.526,67.044 377.074,67.044C362.661,67.044 353.432,78.685 353.432,96.72L353.432,147.442L331.68,147.442L331.68,96.72C331.68,66.451 351.856,47.097 377.074,47.097C402.335,47.097 422.47,66.451 422.47,96.72ZM482.824,129.557C467.199,129.557 454.979,115.757 454.979,98.101C454.979,80.969 467.429,67.067 482.824,67.067C498.086,67.067 510.989,81.264 510.989,98.101C510.989,115.445 498.343,129.557 482.824,129.557L482.824,129.557ZM482.824,47.097C455.04,47.097 433.215,69.284 433.215,98.287C433.215,127.395 455.04,149.68 482.824,149.68C492.954,149.68 503.171,146.006 510.989,138.939L510.989,180L532.684,180L532.684,49.131L511.528,49.131L511.528,58.295C503.76,50.931 493.355,47.097 482.824,47.097ZM594.306,67.097C578.684,67.097 566.463,81.017 566.463,98.66C566.463,115.804 578.919,129.707 594.306,129.707C609.567,129.707 622.47,115.511 622.47,98.66C622.47,81.331 609.823,67.097 594.306,67.097ZM623.008,147.442L623.008,138.479C615.242,145.841 604.836,149.681 594.306,149.681C566.523,149.681 544.739,127.496 544.739,98.476C544.739,69.377 566.523,47.092 594.306,47.092C604.434,47.092 614.654,50.771 622.47,57.835C622.47,57.835 626.86,20.31 593.771,20.31C579.82,20.31 569.974,30.331 565.551,37.882C565.557,37.882 548.203,25.692 548.203,25.692C556.729,9.766 574.78,-0 593.771,-0C606.547,-0 619.114,3.625 628.047,11.457C638.537,20.714 644.291,33.59 644.291,50.949L644.291,147.442L623.008,147.442ZM678.69,107.557C679.476,113.44 686.609,129.851 704.34,129.851C721.539,129.851 729.075,113.947 729.749,107.557L678.69,107.557ZM738.523,135.764C729.467,145.26 717.166,149.676 704.314,149.676C676.847,149.676 655.691,126.859 655.691,98.196C655.691,69.256 676.385,47.097 704.833,47.097C719.805,47.097 734.945,54.862 744.229,66.731L727.287,78.606C721.716,70.946 712.25,66.927 704.833,66.927C693.226,66.927 681.414,75.216 678.515,89.469L751.296,89.469C751.296,89.469 757.942,115.384 738.523,135.764L738.523,135.764ZM800.965,66.95C789.932,66.95 784.802,72.33 784.802,83.92L784.802,128.25L806.006,128.25L806.006,147.442L784.802,147.442L784.802,174.904L763.105,174.904L763.105,83.92C763.105,60.891 776.3,47.097 797.551,47.097C801.981,47.097 806.367,47.736 806.367,47.736L806.367,67.219C803.643,66.986 802.1,66.95 800.965,66.95L800.965,66.95ZM834.794,162.051C836.388,162.051 838.229,162.482 838.229,164.39C838.229,166.107 836.581,166.54 835.096,166.54L832.511,166.54L832.511,162.051L834.794,162.051ZM829.69,168.936L835.224,168.936C838.17,168.936 841.066,167.705 841.066,164.326C841.066,162.051 839.651,160.574 837.439,160.084L841.671,153.202L838.229,153.202L834.549,159.779L832.511,159.779L832.511,153.202L829.69,153.202L829.69,168.936ZM835.16,149.2C841.671,149.2 846.956,154.554 846.956,161.007C846.956,167.521 841.671,172.807 835.16,172.807C828.651,172.807 823.354,167.521 823.354,161.007C823.354,154.554 828.651,149.2 835.16,149.2ZM835.16,174.959C842.9,174.959 849.174,168.75 849.174,161.007C849.174,153.264 842.9,147.177 835.16,147.177C827.417,147.177 821.144,153.264 821.144,161.007C821.144,168.75 827.417,174.959 835.16,174.959" style="fill:rgb(32,45,89);fill-rule:nonzero;"/>
            </g>
        </g>
    </g>
</svg>
